src/lib/packages/icons/src/assets/line/basketball-hoop.svg

<svg width="24" height="24" viewBox="0 0 24 24" fill="none" xmlns="http://www.w3.org/2000/svg">
<path d="M21.75 6V14C21.75 16.42 20.42 17.75 18 17.75H17C16.59 17.75 16.25 17.41 16.25 17C16.25 16.59 16.59 16.25 17 16.25H18C19.58 16.25 20.25 15.58 20.25 14V6C20.25 4.42 19.58 3.75 18 3.75H6C4.42 3.75 3.75 4.42 3.75 6V14C3.75 15.58 4.42 16.25 6 16.25H7C7.41 16.25 7.75 16.59 7.75 17C7.75 17.41 7.41 17.75 7 17.75H6C3.58 17.75 2.25 16.42 2.25 14V6C2.25 3.58 3.58 2.25 6 2.25H18C20.42 2.25 21.75 3.58 21.75 6ZM16 11.75C16.41 11.75 16.75 11.41 16.75 11V8.5C16.75 7.26 15.74 6.25 14.5 6.25H9.5C8.26 6.25 7.25 7.26 7.25 8.5V11C7.25 11.41 7.59 11.75 8 11.75C8.41 11.75 8.75 11.41 8.75 11V8.5C8.75 8.09 9.09 7.75 9.5 7.75H14.5C14.91 7.75 15.25 8.09 15.25 8.5V11C15.25 11.41 15.59 11.75 16 11.75ZM15.75 20.92C15.79 21.33 15.49 21.7 15.08 21.74C15.05 21.74 15.03 21.74 15 21.74C14.62 21.74 14.29 21.45 14.25 21.07C14.2 20.6 14.17 20.17 14.14 19.74H12.74V20.99C12.74 21.4 12.4 21.74 11.99 21.74C11.58 21.74 11.24 21.4 11.24 20.99V19.74H9.84003C9.82003 20.16 9.77998 20.6 9.72998 21.07C9.68998 21.46 9.35998 21.74 8.97998 21.74C8.94998 21.74 8.93002 21.74 8.90002 21.74C8.49002 21.7 8.18998 21.33 8.22998 20.92C8.52998 17.99 8.33002 16.1 7.46002 13.75H6.97998C6.56998 13.75 6.22998 13.41 6.22998 13C6.22998 12.59 6.56998 12.25 6.97998 12.25H16.98C17.39 12.25 17.73 12.59 17.73 13C17.73 13.41 17.39 13.75 16.98 13.75H16.5C15.62 16.11 15.42 17.99 15.73 20.92H15.75ZM14.93 13.75H12.76V15.25H14.5C14.62 14.76 14.75 14.26 14.93 13.75ZM9.09003 13.75C9.27003 14.26 9.40002 14.76 9.52002 15.25H11.26V13.75H9.09003ZM11.26 18.25V16.75H9.78998C9.84998 17.23 9.88001 17.73 9.89001 18.25H11.26ZM12.76 18.25H14.13C14.13 17.73 14.17 17.23 14.23 16.75H12.76V18.25Z" fill="currentColor"/>
</svg>

<svg xmlns="http://www.w3.org/2000/svg" width="24" height="24" fill="none"><path fill="currentColor" d="M21.75 6v8c0 2.42-1.33 3.75-3.75 3.75h-1c-.41 0-.75-.34-.75-.75s.34-.75.75-.75h1c1.58 0 2.25-.67 2.25-2.25V6c0-1.58-.67-2.25-2.25-2.25H6c-1.58 0-2.25.67-2.25 2.25v8c0 1.58.67 2.25 2.25 2.25h1c.41 0 .75.34.75.75s-.34.75-.75.75H6c-2.42 0-3.75-1.33-3.75-3.75V6c0-2.42 1.33-3.75 3.75-3.75h12c2.42 0 3.75 1.33 3.75 3.75ZM16 11.75c.41 0 .75-.34.75-.75V8.5c0-1.24-1.01-2.25-2.25-2.25h-5c-1.24 0-2.25 1.01-2.25 2.25V11c0 .41.34.75.75.75s.75-.34.75-.75V8.5c0-.41.34-.75.75-.75h5c.41 0 .75.34.75.75V11c0 .41.34.75.75.75Zm-.25 9.17a.75.75 0 0 1-.67.82H15c-.38 0-.71-.29-.75-.67-.05-.47-.08-.9-.11-1.33h-1.4v1.25c0 .41-.34.75-.75.75s-.75-.34-.75-.75v-1.25h-1.4c-.02.42-.06.86-.11 1.33-.04.39-.37.67-.75.67H8.9a.75.75 0 0 1-.67-.82c.3-2.93.1-4.82-.77-7.17h-.48c-.41 0-.75-.34-.75-.75s.34-.75.75-.75h10c.41 0 .75.34.75.75s-.34.75-.75.75h-.48c-.88 2.36-1.08 4.24-.77 7.17h.02Zm-.82-7.17h-2.17v1.5h1.74c.12-.49.25-.99.43-1.5Zm-5.84 0c.18.51.31 1.01.43 1.5h1.74v-1.5H9.09Zm2.17 4.5v-1.5H9.79c.06.48.09.98.1 1.5h1.37Zm1.5 0h1.37c0-.52.04-1.02.1-1.5h-1.47v1.5Z"/></svg>
